X:99
T: Vil Du Vera Med Og F\/olgja Gaml\oa Ned I Grav\oa?
C: after Nils Nes
O: Norway
M: 4/4
K: D
R: Reinlender
D: Geitungen ? Bra kast
Z: mheiman@northernroots.org
P: A
F>G F>E E>D D>F |  F>A  d>F A2 A2 | c2 c>B G2 G2 |  G>B  B>A F2 D2 |
F>G F>E E>D D>F |  F>A  d>F A2 A2 | c2 c>B A>G F>E | E>D d>d d4 :|
P: B
G2 B2 G2 B>B | A>G F>E E>D D>F | A,2 A,>C E2 E2 | E>D F>A d4 | 
G2 B2 G2 B>B | A>G F>E E>D (3DFA | d2 F>A A>G E>C | D2 D2 D3 D:|] 

